X: 084
M: C
L: 1/8
K: Gm
d | (g>ab).g dgBd | cfaf cfAf | (g>ab).a gbdg | fcdA G/G/G Gd |
    (g>ab).g dgBd | caBg AFcA | BGDG B,GG,B | AF {d}cA G/G/G G |]


